gtk-icons/Papirus-GTK/48x48/apps/alexandra.svg

<?xml version="1.0" encoding="UTF-8" standalone="no"?>
<!-- Created with Inkscape (http://www.inkscape.org/) -->

<svg
   xmlns:dc="http://purl.org/dc/elements/1.1/"
   xmlns:cc="http://creativecommons.org/ns#"
   xmlns:rdf="http://www.w3.org/1999/02/22-rdf-syntax-ns#"
   xmlns:svg="http://www.w3.org/2000/svg"
   xmlns="http://www.w3.org/2000/svg"
   xmlns:sodipodi="http://sodipodi.sourceforge.net/DTD/sodipodi-0.dtd"
   xmlns:inkscape="http://www.inkscape.org/namespaces/inkscape"
   id="svg2"
   version="1.1"
   inkscape:version="0.91 r"
   width="48"
   height="48"
   viewBox="0 0 48 48"
   sodipodi:docname="alexandra.svg">
  <metadata
     id="metadata8">
    <rdf:RDF>
      <cc:Work
         rdf:about="">
        <dc:format>image/svg+xml</dc:format>
        <dc:type
           rdf:resource="http://purl.org/dc/dcmitype/StillImage" />
        <dc:title></dc:title>
      </cc:Work>
    </rdf:RDF>
  </metadata>
  <defs
     id="defs6" />
  <sodipodi:namedview
     pagecolor="#ffffff"
     bordercolor="#666666"
     borderopacity="1"
     objecttolerance="10"
     gridtolerance="10"
     guidetolerance="10"
     inkscape:pageopacity="0"
     inkscape:pageshadow="2"
     inkscape:window-width="1547"
     inkscape:window-height="876"
     id="namedview4"
     showgrid="false"
     inkscape:zoom="1"
     inkscape:cx="35.008102"
     inkscape:cy="21.460988"
     inkscape:window-x="53"
     inkscape:window-y="24"
     inkscape:window-maximized="1"
     inkscape:current-layer="svg2" />
  <path
     style="opacity:1;fill:#11ab66;fill-opacity:1;stroke:none;stroke-width:2;stroke-miterlimit:4;stroke-dasharray:none;stroke-opacity:1"
     d="M 14,3.9999999 C 8.4771529,3.9999999 3.9999999,8.4771524 3.9999999,14 c 0.0048,2.759701 1.1498523,5.394737 3.1640625,7.28125 -0.103407,0.271719 -0.1640625,0.570566 -0.1640625,0.888672 l 0,5.830078 c -1.1045695,0 -2,0.895431 -2,2 0,1.104569 0.8954305,2 2,2 l 0,5.830078 C 6.9999999,39.032664 7.8216726,40 8.8417969,40 l 6.6738281,0 -2.298828,2.484375 C 12.593931,43.158064 13.37292,43.99998 14.619141,44 L 22,44 29.380859,44 C 30.294499,44.000265 31.027546,43.528958 31,42.958984 30.9917,42.792029 30.9172,42.628964 30.783203,42.484375 L 28.484375,40 35.158203,40 C 36.178327,40 37,39.032664 37,37.830078 l 0,-5.357422 1.494141,0.921875 3.990234,2.460938 C 43.158299,36.270858 44.000449,35.751025 44,34.919922 L 44,30 44,25.078125 C 43.999577,24.469543 43.528479,23.981652 42.958984,24 c -0.166954,0.0055 -0.33002,0.0552 -0.474609,0.144531 L 38.494141,26.605469 37,27.525391 37,22.169922 C 37,21.854087 36.939908,21.557313 36.837891,21.287109 38.852864,19.398863 39.997323,16.761445 40,14 40,8.4771524 35.522847,3.9999999 30,3.9999999 26.850019,4.0047611 23.886403,5.4934439 22.001953,8.017578 20.116679,5.4923443 17.151357,4.003531 14,3.9999999 Z m 0,5 c 2.749579,0 5,2.2504211 5,5.0000001 0,2.749579 -2.250421,5 -5,5 -2.749579,0 -5.0000001,-2.250421 -5.0000001,-5 0,-2.749579 2.2504211,-5.0000001 5.0000001,-5.0000001 z m 16,0 c 2.749579,0 5,2.2504211 5,5.0000001 0,2.749579 -2.250421,5 -5,5 -2.749579,0 -5,-2.250421 -5,-5 0,-2.749579 2.250421,-5.0000001 5,-5.0000001 z M 14,11 c -1.668699,0 -3,1.331301 -3,3 0,1.668699 1.331301,3 3,3 1.668699,0 3,-1.331301 3,-3 0,-1.668699 -1.331301,-3 -3,-3 z m 16,0 c -1.668699,0 -3,1.331301 -3,3 0,1.668699 1.331301,3 3,3 1.668699,0 3,-1.331301 3,-3 0,-1.668699 -1.331301,-3 -3,-3 z"
     id="rect4144"
     inkscape:connector-curvature="0"
     sodipodi:nodetypes="cccscscssccccccccssccccccccccscccccssssssssssssssssssss" />
  <path
     style="opacity:0.3;fill:#000000;fill-opacity:1;stroke:none;stroke-width:2;stroke-miterlimit:4;stroke-dasharray:none;stroke-opacity:1"
     d="M 14 8 C 11.250421 8 9 10.250421 9 13 C 9 13.165281 9.0095078 13.328941 9.0253906 13.490234 C 9.2826985 10.977412 11.42227 9 14 9 C 16.57773 9 18.717301 10.977412 18.974609 13.490234 C 18.990492 13.328941 19 13.165281 19 13 C 19 10.250421 16.749579 8 14 8 z M 30 8 C 27.250421 8 25 10.250421 25 13 C 25 13.165281 25.009508 13.328941 25.025391 13.490234 C 25.282699 10.977412 27.42227 9 30 9 C 32.57773 9 34.717301 10.977412 34.974609 13.490234 C 34.990492 13.328941 35 13.165281 35 13 C 35 10.250421 32.749579 8 30 8 z M 4.0253906 13.482422 C 4.0165201 13.655109 4 13.825107 4 14 C 4.0046665 16.682932 5.094895 19.241183 7.0058594 21.115234 C 7.0125776 20.818201 7.0667977 20.536829 7.1640625 20.28125 C 5.2680781 18.505467 4.1550291 16.064341 4.0253906 13.482422 z M 39.974609 13.482422 C 39.847021 16.066387 38.734817 18.509486 36.837891 20.287109 C 36.934703 20.543529 36.99032 20.825188 36.996094 21.123047 C 38.908353 19.24719 39.997397 16.685099 40 14 C 40 13.825107 39.98348 13.655109 39.974609 13.482422 z M 11.050781 13.5 C 11.023665 13.663501 11 13.828269 11 14 C 11 15.668699 12.331301 17 14 17 C 15.668699 17 17 15.668699 17 14 C 17 13.828269 16.976335 13.663501 16.949219 13.5 C 16.712845 14.925226 15.496968 16 14 16 C 12.503032 16 11.287155 14.925226 11.050781 13.5 z M 27.050781 13.5 C 27.023665 13.663501 27 13.828269 27 14 C 27 15.668699 28.331301 17 30 17 C 31.668699 17 33 15.668699 33 14 C 33 13.828269 32.976335 13.663501 32.949219 13.5 C 32.712845 14.925226 31.496968 16 30 16 C 28.503032 16 27.287155 14.925226 27.050781 13.5 z M 5.0703125 29.5 C 5.0286555 29.660757 5 29.826216 5 30 C 5 31.104569 5.8954305 32 7 32 L 7 31 C 6.0692144 31 5.293427 30.361015 5.0703125 29.5 z M 37 31.472656 L 37 32.472656 L 38.494141 33.394531 L 42.484375 35.855469 C 43.158299 36.270858 44.000449 35.751025 44 34.919922 L 44 33.919922 C 44.000449 34.751025 43.158299 35.270858 42.484375 34.855469 L 38.494141 32.394531 L 37 31.472656 z M 7 36.830078 L 7 37.830078 C 7 39.032664 7.8216726 40 8.8417969 40 L 14.589844 40 L 15.515625 39 L 8.8417969 39 C 7.8216726 39 7 38.032664 7 36.830078 z M 37 36.830078 C 37 38.032664 36.178327 39 35.158203 39 L 28.484375 39 L 29.410156 40 L 35.158203 40 C 36.178327 40 37 39.032664 37 37.830078 L 37 36.830078 z M 30.783203 42.486328 C 30.504902 42.791231 29.985614 43.000175 29.380859 43 L 22 43 L 14.619141 43 C 13.993043 42.99999 13.484611 42.787148 13.212891 42.490234 C 12.599763 43.162951 13.376472 43.99998 14.619141 44 L 22 44 L 29.380859 44 C 30.294499 44.000265 31.027546 43.528958 31 42.958984 C 30.991724 42.792516 30.916464 42.630603 30.783203 42.486328 z "
     id="path4205" />
  <path
     style="opacity:0.1;fill:#ffffff;fill-opacity:1;stroke:none;stroke-width:2;stroke-miterlimit:4;stroke-dasharray:none;stroke-opacity:1"
     d="M 14 4 C 8.4771529 4 4 8.4771524 4 14 C 4.0002817 14.161983 4.0173069 14.321424 4.0253906 14.482422 C 4.296637 9.2019308 8.6520462 5 14 5 C 17.151357 5.0035311 20.116679 6.4923444 22.001953 9.0175781 C 23.886403 6.493444 26.850019 5.0047612 30 5 C 35.347954 5 39.703363 9.2019308 39.974609 14.482422 C 39.982549 14.32162 39.999843 14.161779 40 14 C 40 8.4771524 35.522847 4 30 4 C 26.850019 4.0047612 23.886403 5.493444 22.001953 8.0175781 C 20.116679 5.4923444 17.151357 4.0035311 14 4 z M 14 11 C 12.331301 11 11 12.331301 11 14 C 11 14.171731 11.023665 14.336499 11.050781 14.5 C 11.287155 13.074774 12.503032 12 14 12 C 15.496968 12 16.712845 13.074774 16.949219 14.5 C 16.976335 14.336499 17 14.171731 17 14 C 17 12.331301 15.668699 11 14 11 z M 30 11 C 28.331301 11 27 12.331301 27 14 C 27 14.171731 27.023665 14.336499 27.050781 14.5 C 27.287155 13.074774 28.503032 12 30 12 C 31.496968 12 32.712845 13.074774 32.949219 14.5 C 32.976335 14.336499 33 14.171731 33 14 C 33 12.331301 31.668699 11 30 11 z M 9.0253906 14.509766 C 9.0095078 14.671059 9 14.834719 9 15 C 9 17.749579 11.250421 20 14 20 C 16.749579 20 19 17.749579 19 15 C 19 14.834719 18.990492 14.671059 18.974609 14.509766 C 18.717301 17.022588 16.57773 19 14 19 C 11.42227 19 9.2826985 17.022588 9.0253906 14.509766 z M 25.025391 14.509766 C 25.009508 14.671059 25 14.834719 25 15 C 25 17.749579 27.250421 20 30 20 C 32.749579 20 35 17.749579 35 15 C 35 14.834719 34.990492 14.671059 34.974609 14.509766 C 34.717301 17.022588 32.57773 19 30 19 C 27.42227 19 25.282699 17.022588 25.025391 14.509766 z M 7.0058594 22.115234 C 7.0054351 22.133992 7 22.151027 7 22.169922 L 7 23.169922 C 7 22.851816 7.0606555 22.552969 7.1640625 22.28125 C 7.1080316 22.228771 7.0605393 22.168858 7.0058594 22.115234 z M 36.996094 22.123047 C 36.941722 22.176384 36.893599 22.234905 36.837891 22.287109 C 36.939908 22.557313 37 22.854087 37 23.169922 L 37 22.169922 C 37 22.15381 36.996404 22.139059 36.996094 22.123047 z M 42.958984 24 C 42.79203 24.0055 42.628964 24.0552 42.484375 24.144531 L 38.494141 26.605469 L 37 27.525391 L 37 28.525391 L 38.494141 27.605469 L 42.484375 25.144531 C 42.628964 25.0552 42.79203 25.0055 42.958984 25 C 43.528479 24.981652 43.999577 25.469543 44 26.078125 L 44 25.078125 C 43.999577 24.469543 43.528479 23.981652 42.958984 24 z M 7 28 C 5.8954305 28 5 28.895431 5 30 C 5 30.173784 5.0286555 30.339243 5.0703125 30.5 C 5.293427 29.638985 6.0692144 29 7 29 L 7 28 z M 14.589844 41 L 13.216797 42.484375 C 12.906857 42.819604 12.943764 43.196154 13.212891 43.490234 C 13.214644 43.488311 13.215021 43.486296 13.216797 43.484375 L 15.515625 41 L 14.589844 41 z M 28.484375 41 L 30.783203 43.484375 C 30.783593 43.484796 30.782814 43.485907 30.783203 43.486328 C 30.925349 43.330595 31.009313 43.151683 31 42.958984 C 30.9917 42.792029 30.9172 42.628964 30.783203 42.484375 L 29.410156 41 L 28.484375 41 z "
     id="path4210" />
</svg>

<?xml version="1.0" encoding="UTF-8" standalone="no"?>
<!-- Created with Inkscape (http://www.inkscape.org/) -->
<svg id="svg2" xmlns:rdf="http://www.w3.org/1999/02/22-rdf-syntax-ns#" xmlns="http://www.w3.org/2000/svg" height="48" viewBox="0 0 48 48" width="48" version="1.1" xmlns:cc="http://creativecommons.org/ns#" xmlns:dc="http://purl.org/dc/elements/1.1/">
 <metadata id="metadata8">
  <rdf:RDF>
   <cc:Work rdf:about="">
    <dc:format>image/svg+xml</dc:format>
    <dc:type rdf:resource="http://purl.org/dc/dcmitype/StillImage"/>
    <dc:title/>
   </cc:Work>
  </rdf:RDF>
 </metadata>
 <path id="rect4144" d="m14 4c-5.5228 0-10 4.4772-10 10 0.0048 2.7597 1.1499 5.3947 3.1641 7.2812-0.10341 0.27172-0.16406 0.57057-0.16406 0.88867v5.8301c-1.1046 0-2 0.89543-2 2s0.89543 2 2 2v5.8301c0 1.203 0.8217 2.17 1.8418 2.17h6.6738l-2.2988 2.4844c-0.623 0.674 0.156 1.516 1.402 1.516h7.381 7.381c0.913 0 1.647-0.471 1.619-1.041-0.008-0.167-0.083-0.33-0.217-0.475l-2.299-2.484h6.674c1.02 0 1.842-0.967 1.842-2.17v-5.3574l1.4941 0.92188 3.9902 2.4609c0.674 0.416 1.516-0.104 1.516-0.935v-4.92-4.922c0-0.608-0.472-1.096-1.041-1.078-0.16695 0.0055-0.33002 0.0552-0.47461 0.14453l-3.99 2.46-1.494 0.92v-5.355c0-0.316-0.06-0.613-0.162-0.883 2.015-1.888 3.159-4.526 3.162-7.287 0-5.5228-4.477-10-10-10-3.15 0.0048-6.114 1.4934-7.998 4.0176-1.885-2.5253-4.851-4.0141-8.002-4.0176zm0 5c2.7496 0 5 2.2504 5 5s-2.2504 5-5 5-5-2.2504-5-5 2.2504-5 5-5zm16 0c2.7496 0 5 2.2504 5 5s-2.2504 5-5 5-5-2.2504-5-5 2.2504-5 5-5zm-16 2c-1.6687 0-3 1.3313-3 3s1.3313 3 3 3 3-1.3313 3-3-1.3313-3-3-3zm16 0c-1.6687 0-3 1.3313-3 3s1.3313 3 3 3 3-1.3313 3-3-1.3313-3-3-3z" fill="#11ab66"/>
 <path id="path4205" opacity=".3" d="m14 8c-2.75 0-5 2.25-5 5 0 0.165 0.0095 0.329 0.0254 0.49 0.2573-2.513 2.3966-4.49 4.9746-4.49s4.717 1.977 4.975 4.49c0.015-0.161 0.025-0.325 0.025-0.49 0-2.75-2.25-5-5-5zm16 0c-2.75 0-5 2.25-5 5 0 0.165 0.01 0.329 0.025 0.49 0.258-2.513 2.397-4.49 4.975-4.49s4.717 1.977 4.975 4.49c0.015-0.161 0.025-0.325 0.025-0.49 0-2.75-2.25-5-5-5zm-25.975 5.482c-0.0089 0.173-0.0254 0.343-0.0254 0.518 0.0047 2.683 1.0949 5.241 3.0059 7.115 0.0067-0.297 0.0609-0.578 0.1582-0.834-1.896-1.776-3.0091-4.217-3.1387-6.799zm35.95 0c-0.128 2.584-1.24 5.027-3.137 6.805 0.097 0.257 0.152 0.538 0.158 0.836 1.912-1.876 3.001-4.438 3.004-7.123 0-0.175-0.017-0.345-0.025-0.518zm-28.924 0.018c-0.027 0.164-0.051 0.328-0.051 0.5 0 1.669 1.331 3 3 3s3-1.331 3-3c0-0.172-0.024-0.336-0.051-0.5-0.236 1.425-1.452 2.5-2.949 2.5s-2.713-1.075-2.949-2.5zm16 0c-0.027 0.164-0.051 0.328-0.051 0.5 0 1.669 1.331 3 3 3s3-1.331 3-3c0-0.172-0.024-0.336-0.051-0.5-0.236 1.425-1.452 2.5-2.949 2.5s-2.713-1.075-2.949-2.5zm-21.981 16c-0.0416 0.161-0.0703 0.326-0.0703 0.5 0 1.105 0.8954 2 2 2v-1c-0.9308 0-1.7066-0.639-1.9297-1.5zm31.93 1.973v1l1.494 0.922 3.99 2.46c0.674 0.416 1.516-0.104 1.516-0.935v-1c0 0.831-0.842 1.351-1.516 0.935l-3.99-2.46-1.494-0.922zm-30 5.357v1c0 1.203 0.8217 2.17 1.8418 2.17h5.7482l0.926-1h-6.6742c-1.0201 0-1.8418-0.967-1.8418-2.17zm30 0c0 1.203-0.822 2.17-1.842 2.17h-6.674l0.926 1h5.748c1.02 0 1.842-0.967 1.842-2.17v-1zm-6.217 5.656c-0.278 0.305-0.797 0.514-1.402 0.514h-7.381-7.381c-0.626 0-1.134-0.213-1.406-0.51-0.613 0.673 0.163 1.51 1.406 1.51h7.381 7.381c0.913 0 1.647-0.471 1.619-1.041-0.008-0.166-0.084-0.328-0.217-0.473z"/>
 <path id="path4210" opacity=".1" d="m14 4c-5.5228 0-10 4.4772-10 10 0.0003 0.162 0.0173 0.321 0.0254 0.482 0.2712-5.2801 4.6266-9.482 9.9746-9.482 3.151 0.0035 6.117 1.4923 8.002 4.0176 1.884-2.5242 4.848-4.0128 7.998-4.0176 5.348 0 9.703 4.2019 9.975 9.482 0.008-0.16 0.025-0.32 0.025-0.482 0-5.5228-4.477-10-10-10-3.15 0.0048-6.114 1.4934-7.998 4.0176-1.885-2.5253-4.851-4.0141-8.002-4.0176zm0 7c-1.669 0-3 1.331-3 3 0 0.172 0.024 0.336 0.051 0.5 0.236-1.425 1.452-2.5 2.949-2.5s2.713 1.075 2.949 2.5c0.027-0.164 0.051-0.328 0.051-0.5 0-1.669-1.331-3-3-3zm16 0c-1.669 0-3 1.331-3 3 0 0.172 0.024 0.336 0.051 0.5 0.236-1.425 1.452-2.5 2.949-2.5s2.713 1.075 2.949 2.5c0.027-0.164 0.051-0.328 0.051-0.5 0-1.669-1.331-3-3-3zm-20.975 3.51c-0.0159 0.161-0.0254 0.325-0.0254 0.49 0 2.75 2.25 5 5 5s5-2.25 5-5c0-0.165-0.01-0.329-0.025-0.49-0.258 2.513-2.397 4.49-4.975 4.49s-4.7173-1.977-4.9746-4.49zm16 0c-0.015 0.161-0.025 0.325-0.025 0.49 0 2.75 2.25 5 5 5s5-2.25 5-5c0-0.165-0.01-0.329-0.025-0.49-0.258 2.513-2.397 4.49-4.975 4.49s-4.717-1.977-4.975-4.49zm-18.019 7.605c-0.0005 0.019-0.0059 0.036-0.0059 0.055v1c0-0.318 0.0607-0.617 0.1641-0.889-0.0561-0.052-0.1036-0.112-0.1582-0.166zm29.99 0.008c-0.054 0.053-0.102 0.112-0.158 0.164 0.102 0.27 0.162 0.567 0.162 0.883v-1c0-0.016-0.004-0.031-0.004-0.047zm5.963 1.877c-0.167 0.006-0.33 0.055-0.475 0.145l-3.99 2.46-1.494 0.92v1l1.494-0.92 3.99-2.46c0.145-0.09 0.308-0.139 0.475-0.145 0.569-0.018 1.041 0.47 1.041 1.078v-1c0-0.608-0.472-1.096-1.041-1.078zm-35.959 4c-1.1046 0-2 0.895-2 2 0 0.174 0.0287 0.339 0.0703 0.5 0.2231-0.861 0.9989-1.5 1.9297-1.5v-1zm7.59 13l-1.373 1.484c-0.31 0.336-0.273 0.712-0.004 1.006 0.002-0.002 0.002-0.004 0.004-0.006l2.299-2.484h-0.926zm13.894 0l2.299 2.484c0.001 0.001 0 0.002 0 0.002 0.142-0.155 0.226-0.334 0.217-0.527-0.008-0.167-0.083-0.33-0.217-0.475l-1.373-1.484h-0.926z" fill="#fff"/>
</svg>
